X: 12061
T: Banquo's Ghost
%R: air, march
B: James Oswald "The Caledonian Pocket Companion" v.1 b.1 p.6 #1
Z: 2020 John Chambers <jc:trillian.mit.edu>
M: C
L: 1/8
K: D
|: "^Slow"\
d2 D>E{E}F2 A2 | d2 {e}f>a {a}b3 a | (gf)(ed) {d}Tc3 B | (c>d)(e>f) e4 |\
d2 D>E {E}F2 A2 | d2 {e}f>a {a}b3 a | (gf)(ed) B2 d>A | (AB)(de) d4 :|
|:\
c2 {e}d(c/B/) A2 a2 | (gf)(ed) Tc2 d>e | f2 B2 (^AF)(Bc) | {d}Tc3B B4 |\
d2 D>E {E}F2 (fd) | B2 (ec) A2 (af) | g3 b (af)(Te>d) | (AB) (d>e) d4 :|
